svg/070-black.svg

<svg height="288pt" stroke-linejoin="round" viewBox="0 0 432 288" width="432pt" xmlns="http://www.w3.org/2000/svg"><g stroke-linejoin="round"><path d="m0 288h432v-288h-432z" fill="none"/><path d="m128.220282 172.76121c5.585955 17.191799 15.819943 32.508042 29.565443 44.247807 13.745501 11.739765 30.474125 19.451765 48.3281 22.279556 17.853976 2.827791 36.146982.66267 52.847516-6.254919 16.700533-6.917588 31.166612-18.321726 41.791728-32.945945 10.625116-14.624218 17.00083-31.90635 18.419098-49.927154 1.418267-18.020803-2.175432-36.087545-10.382004-52.193848-8.206572-16.106304-20.71055-29.633031-36.123323-39.077991-15.412774-9.444959-33.141863-14.44508-51.218391-14.44508v98.025899z"/></g></svg>

<?xml version="1.0" encoding="utf-8" standalone="no"?>
<!DOCTYPE svg PUBLIC "-//W3C//DTD SVG 1.1//EN"
  "http://www.w3.org/Graphics/SVG/1.1/DTD/svg11.dtd">
<!-- Created with matplotlib (http://matplotlib.org/) -->
<svg height="288pt" version="1.1" viewBox="0 0 432 288" width="432pt" xmlns="http://www.w3.org/2000/svg" xmlns:xlink="http://www.w3.org/1999/xlink">
 <defs>
  <style type="text/css">
*{stroke-linecap:butt;stroke-linejoin:round;}
  </style>
 </defs>
 <g id="figure_1">
  <g id="patch_1">
   <path d="M 0 288 
L 432 288 
L 432 0 
L 0 0 
z
" style="fill:none;"/>
  </g>
  <g id="axes_1">
   <g id="patch_2">
    <path d="M 128.220282 172.76121 
C 133.806237 189.953009 144.040225 205.269252 157.785725 217.009017 
C 171.531226 228.748782 188.25985 236.460782 206.113825 239.288573 
C 223.967801 242.116364 242.260807 239.951243 258.961341 233.033654 
C 275.661874 226.116066 290.127953 214.711928 300.753069 200.087709 
C 311.378185 185.463491 317.753899 168.181359 319.172167 150.160555 
C 320.590434 132.139752 316.996735 114.07301 308.790163 97.966707 
C 300.583591 81.860403 288.079613 68.333676 272.66684 58.888716 
C 257.254066 49.443757 239.524977 44.443636 221.448449 44.443636 
L 221.448449 142.469535 
L 128.220282 172.76121 
z
"/>
   </g>
   <g id="patch_3">
    <path d="M 221.448449 44.443636 
C 205.979696 44.443636 190.728381 48.105153 176.945621 55.127821 
C 163.162861 62.150488 151.236134 72.336876 142.143829 84.85136 
C 133.051525 97.365845 127.049256 111.856604 124.629411 127.134911 
C 122.209566 142.413219 123.440173 158.049552 128.220282 172.76121 
L 132.88169 171.246627 
C 128.340587 157.270551 127.17151 142.416034 129.470363 127.901642 
C 131.769216 113.38725 137.471371 99.621029 146.10906 87.732269 
C 154.746749 75.843509 166.07714 66.16644 179.170762 59.494906 
C 192.264384 52.823372 206.753133 49.344931 221.448449 49.344931 
z
"/>
   </g>
   <g id="matplotlib.axis_1"/>
   <g id="matplotlib.axis_2"/>
  </g>
 </g>
</svg>
